svgs/altos_odyssey.svg

<svg width="192" height="192" viewBox="0 0 192 192" fill="none" xmlns="http://www.w3.org/2000/svg">
<path d="M94.1586 95.5626C110.132 95.5626 123.081 79.8389 123.081 60.4428C123.081 41.0466 110.132 25.3229 94.1586 25.3229C78.1853 25.3229 65.2363 41.0466 65.2363 60.4428C65.2363 79.8389 78.1853 95.5626 94.1586 95.5626Z" stroke="black" stroke-width="8" stroke-linejoin="round"/>
<path d="M23.996 43.1425L35.7977 59.4098L47.5994 43.1425C51.8089 37.3404 51.1764 29.3393 46.1077 24.2705C40.4136 18.5765 31.1818 18.5765 25.4878 24.2705C20.419 29.3393 19.7866 37.3404 23.996 43.1425Z" stroke="black" stroke-width="8" stroke-linecap="round" stroke-linejoin="round"/>
<path d="M27.0178 73.871H45.0942" stroke="black" stroke-width="8" stroke-linecap="round" stroke-linejoin="round"/>
<path d="M65.753 72.838C62.634 78.0363 60.6768 82.6284 56.6254 91.9474C55.4132 94.736 54.1983 97.6703 53.0044 100.727M53.0044 100.727C51.6498 104.196 50.322 107.823 49.0555 111.573M53.0044 100.727L63.6871 97.6285M119.466 158.572L136.509 172H71.9506L70.4012 148.242M119.466 158.572L147.818 166.251C159.054 169.294 170.397 161.736 171.916 150.195C173.216 140.319 166.76 131.084 157.038 128.913L121.015 120.87L112.752 87.8156M119.466 158.572L117.566 146.177M70.4012 148.242L69.8847 131.199L63.6871 172H38.8966C38.5765 164.157 39.0779 156.162 40.1697 148.242M70.4012 148.242L117.566 146.177M117.566 146.177L113.372 118.804M49.0555 111.573L41.8711 110.321C31.2908 108.478 21.3414 115.922 20.1219 126.592C19.0475 135.994 25.1782 144.712 34.3892 146.881L40.1697 148.242M49.0555 111.573C45.2079 122.967 41.9255 135.507 40.1697 148.242M63.6871 97.6285L74.0165 94.5297L84.5583 103.974C91.7051 110.376 102.991 108.171 107.202 99.5484L109.653 94.5297L113.372 118.804M63.6871 97.6285L85.3356 118.322C92.9895 125.638 104.935 125.984 113 119.121L113.372 118.804" stroke="black" stroke-width="8" stroke-linecap="round" stroke-linejoin="round"/>
<path d="M67.3022 53.2122C96.2245 40.817 116.194 55.2781 122.564 64.0581C121.531 70.9443 113.268 85.2333 80.214 92.4638" stroke="black" stroke-width="8" stroke-linecap="round" stroke-linejoin="round"/>
<path d="M78.6645 66.6404C80.9464 66.6404 82.7962 64.7905 82.7962 62.5086C82.7962 60.2267 80.9464 58.3769 78.6645 58.3769C76.3826 58.3769 74.5327 60.2267 74.5327 62.5086C74.5327 64.7905 76.3826 66.6404 78.6645 66.6404Z" fill="black"/>
<path d="M98.2904 66.6404C100.572 66.6404 102.422 64.7905 102.422 62.5086C102.422 60.2267 100.572 58.3769 98.2904 58.3769C96.0085 58.3769 94.1587 60.2267 94.1587 62.5086C94.1587 64.7905 96.0085 66.6404 98.2904 66.6404Z" fill="black"/>
<path d="M82.7964 76.9698C85.3787 78.0027 88.994 78.5192 93.1258 76.9698" stroke="black" stroke-width="8" stroke-linecap="round" stroke-linejoin="round"/>
</svg>

<svg width="192" height="192" viewBox="0 0 192 192" fill="none" xmlns="http://www.w3.org/2000/svg"><path d="M94.159 95.563c15.973 0 28.922-15.724 28.922-35.12 0-19.396-12.949-35.12-28.922-35.12-15.974 0-28.923 15.724-28.923 35.12 0 19.396 12.95 35.12 28.923 35.12Z" stroke="#000" stroke-width="8" stroke-linejoin="round"/><path d="M23.996 43.142 35.798 59.41l11.801-16.267a14.58 14.58 0 0 0-1.491-18.873c-5.694-5.694-14.926-5.694-20.62 0a14.58 14.58 0 0 0-1.492 18.872ZM27.018 73.871h18.076M65.753 72.838c-3.119 5.198-5.076 9.79-9.128 19.11a252.28 252.28 0 0 0-3.62 8.779m0 0a248.188 248.188 0 0 0-3.95 10.846m3.95-10.846 10.682-3.099m55.779 60.944L136.509 172H71.951l-1.55-23.758m49.065 10.33 28.352 7.679c11.236 3.043 22.579-4.515 24.098-16.056 1.3-9.876-5.156-19.111-14.878-21.282l-36.023-8.043-8.263-33.054m6.714 70.756-1.9-12.395m-47.165 2.065-.516-17.043L63.687 172h-24.79c-.32-7.843.18-15.838 1.273-23.758m30.231 0 47.165-2.065m0 0-4.194-27.373m-64.316-7.231-7.185-1.252c-10.58-1.843-20.53 5.601-21.75 16.271-1.073 9.402 5.057 18.12 14.268 20.289l5.78 1.361m8.887-36.669c-3.848 11.394-7.13 23.934-8.886 36.669m23.517-50.613 10.33-3.1 10.541 9.445c7.147 6.402 18.433 4.197 22.644-4.426l2.451-5.018 3.719 24.274M63.687 97.629l21.649 20.693c7.654 7.316 19.599 7.662 27.664.799l.372-.317M67.302 53.212c28.922-12.395 48.892 2.066 55.262 10.846-1.033 6.886-9.296 21.175-42.35 28.406" stroke="#000" stroke-width="8" stroke-linecap="round" stroke-linejoin="round"/><path d="M78.665 66.64a4.132 4.132 0 1 0 0-8.263 4.132 4.132 0 0 0 0 8.263ZM98.29 66.64a4.132 4.132 0 1 0 0-8.263 4.132 4.132 0 0 0 0 8.263Z" fill="#000"/><path d="M82.796 76.97c2.583 1.033 6.198 1.55 10.33 0" stroke="#000" stroke-width="8" stroke-linecap="round" stroke-linejoin="round"/></svg>
